X:1
T:Title
%%score 1 ( 2 3 )
L:1/8
Q:1/4=135
M:3/4
K:A
V:1 treble nm="Choir Aahs, ChrchOrg"
V:2 bass nm="Choir Aahs, ChrchOrg-2"
V:3 bass 
V:1
 [CA]2 [DG]2 [EA]2 | [FB]2 [EA]2 [EG]2 | [EA]6 | [Ec]2 [EB]2 [EA]2 | [Ed]4 [Ec]2 | [EB]6 | %6
w: By~Samuel~Sebastian~Wesley,~"European~Psalmist" * *||||||
 [FA]2 [EG]2 [^DF]2 | E6 | [EB]2 [EG]2 E2 | [EA]3 [EB] [Ec]2 | [EB]2 [EG]2 E2 | [EA]3 [EB] [Ec]2 | %12
w: ||||||
 [Dd]2 [Ec]2 [EB]2 | [Ee]3 [Gd] [Ac]2 | [FB]2 [EA]2 [EG]2 | [EA]6 |] %16
w: ||||
V:2
 [A,,C]2 [B,,B,]2 [C,A,]2 | [D,D]2 [E,C]2 [E,B,]2 | [A,,C]6 | A,2 [E,G,]2 [F,A,]2 | [G,B,]4 A,2 | %5
 [E,G,]6 | [A,,C]2 [B,,B,]2 [B,,A,]2 | [E,G,]6 | [E,G,]2 [E,B,]2 [D,G,]2 | %9
 [C,A,]3 [B,,G,] [A,,A,]2 | [E,G,]2 [E,B,]2 [E,G,]2 | [C,A,]3 [E,G,] A,2 | %12
 [F,A,]2 [E,A,]2 [D,G,]2 | [C,A,]3 [E,B,] [F,A,]2 | [D,D]2 [E,C]2 B,D | [A,,C]6 |] %16
V:3
 x6 | x6 | x6 | x6 | x6 | x6 | x6 | x6 | x6 | x6 | x6 | x6 | x6 | x6 | z2 z2 E,2 | x6 |] %16

